X: 1
T: Valse \`a cinq temps
O: trad France
R: waltz
D: Patrick Bouffard "Rabaterie"
Z: 2009 John Chambers <jc:trillian.mit.edu>
S: PDF MS from Steve Gruverman
M: 5/8
L: 1/8
K: G
D | "D7"FA "G"GB d | "D7"cA "G"BG D | "D7"FA "G"GB d | "D7"cA "G"G2 :|
d | "D7"cA "G"BG d | "D7"cA "G"BG d | "D7"cA "G"BG D | "D7"FA "G"G2 ||
d | "D7"cA "G"BG d | "D7"cA "G"BG D | "D7"FA "G"GB d | "D7"cA "G"G2 |]
